src/assets/img/providers/playngo-g.svg

<svg width="102" height="28" viewBox="0 0 102 28" fill="none" xmlns="http://www.w3.org/2000/svg">
<path d="M78.4701 17.9074C79.4826 14.673 80.5014 11.4184 81.4962 8.16385C82.6563 8.15259 83.824 8.15637 84.9841 8.16012C85.5613 8.16199 86.1367 8.16385 86.7083 8.16385C85.5276 12.0265 84.33 15.8723 83.1155 19.7181H77.9035C78.092 19.1153 78.2809 18.5117 78.4701 17.9074Z" fill="#00AB55"/>
<path d="M12.0191 13.5614H9.79263C10.0119 12.7855 10.2481 12.0096 10.4842 11.2337H12.7444C12.6264 11.6217 12.5041 12.0097 12.3818 12.3977C12.2595 12.7856 12.1372 13.1735 12.0191 13.5614Z" fill="#00AB55"/>
<path d="M27.9083 13.5614H25.6818C25.9011 12.7855 26.1541 12.0096 26.4071 11.2337H28.6336C28.5155 11.6217 28.3932 12.0097 28.2709 12.3976C28.1486 12.7856 28.0264 13.1735 27.9083 13.5614Z" fill="#00AB55"/>
<path fill-rule="evenodd" clip-rule="evenodd" d="M93.5396 2.15903C94.5685 3.28916 95.0914 4.80723 95.1758 6.30843C95.5802 6.32681 95.9921 6.31515 96.4051 6.30344C97.5078 6.27221 98.6179 6.24076 99.6119 6.78072C100.708 7.33735 101.417 8.46747 101.602 9.68193V10.812C101.304 12.0939 100.948 13.3583 100.591 14.6223L100.591 14.6228L100.591 14.6231C100.342 15.5043 100.094 16.3855 99.8649 17.2723C99.3926 19.2458 97.8914 20.8819 95.9854 21.5229C94.8263 21.8901 93.6125 21.8592 92.4078 21.8284C91.8436 21.814 91.2813 21.7996 90.7277 21.8263L90.7228 21.8434C88.9685 25.2 85.4938 27.6964 81.6987 28H56.6505C55.0649 27.8313 53.4794 27.1566 52.3999 25.9928C51.3372 24.8795 50.7637 23.3952 50.6794 21.8602H4.52999C3.41674 21.8602 2.26975 21.5735 1.46011 20.7807C0.869751 20.2072 0.515533 19.3807 0.397461 18.5542V17.441C0.717331 15.933 1.10683 14.456 1.49785 12.9733C1.68417 12.2667 1.87084 11.5589 2.05047 10.8458C2.5565 8.3494 4.90108 6.30843 7.46493 6.30843H55.0987V6.29156C56.7179 2.93494 60.0746 0.421687 63.7854 0H89.1372C90.7902 0.202409 92.4095 0.893974 93.5396 2.15903ZM58.8279 25.4888H58.8283C60.3578 25.492 61.8993 25.4952 63.4312 25.4699C66.5517 25.2843 69.2336 22.8386 70.2119 19.9542C70.7446 18.299 71.2613 16.6437 71.777 14.9914L71.7788 14.9855L71.779 14.9848C72.177 13.7097 72.5744 12.4364 72.9782 11.1663H64.6963C64.4095 12.1108 64.1143 13.0512 63.8191 13.9916C63.524 14.9319 63.2288 15.8723 62.942 16.8169H65.8095C65.489 17.7952 65.1854 18.7904 64.8818 19.7855H59.2143C59.4488 19.0399 59.6832 18.2936 59.9178 17.5469C60.8983 14.4257 61.8809 11.2977 62.8746 8.18072C65.2598 8.19197 67.6599 8.18822 70.0551 8.18446C71.2508 8.18259 72.4453 8.18072 73.636 8.18072L73.856 7.49073C74.3894 5.81808 74.9197 4.15532 75.424 2.47952C73.7202 2.47108 72.0207 2.47108 70.3212 2.47108C68.6219 2.47108 66.9226 2.47108 65.2191 2.46265C61.4408 2.27711 57.8481 5.11084 56.8866 8.72048C56.2519 10.7647 55.612 12.7986 54.9726 14.8307C54.4566 16.4707 53.941 18.1096 53.4288 19.7518C53.0071 21.0506 53.024 22.5687 53.7999 23.7325C54.5589 24.9132 55.9589 25.5036 57.3083 25.4867C57.8117 25.4867 58.3172 25.4878 58.824 25.4888L58.8279 25.4888ZM80.636 25.5205C84.4649 25.6386 88.0746 22.8217 89.0866 19.1446C89.6246 17.3982 90.1697 15.6554 90.7138 13.9162L90.7148 13.9128L90.715 13.9122C91.3476 11.89 91.9786 9.87268 92.595 7.86024C93.1011 6.19036 92.7469 4.1494 91.2963 3.05301C90.1324 2.09157 88.5637 2.1253 87.1637 2.15903C86.5443 2.17624 85.923 2.1603 85.3017 2.14435C84.0957 2.1134 82.8898 2.08246 81.6987 2.29397C78.7131 3.01928 76.1155 5.38072 75.2722 8.3494C74.6824 10.2281 74.0927 12.111 73.503 13.994L73.5011 14L73.4989 14.0069C72.9093 15.8895 72.3196 17.7722 71.73 19.6506C71.3083 21 71.3758 22.5349 72.1854 23.7325C72.9107 24.8289 74.2095 25.4193 75.5083 25.4867C76.5925 25.5297 77.6836 25.5248 78.7728 25.5199H78.7735C79.3955 25.5171 80.0169 25.5144 80.636 25.5205ZM9.73631 15.8982C10.2802 15.9088 10.8334 15.9197 11.3782 15.8723C12.7613 15.8217 14.0264 14.7928 14.4143 13.4434C14.5038 13.1153 14.6123 12.7915 14.721 12.4666C14.9199 11.8728 15.1199 11.2757 15.2071 10.6434C15.3252 9.7494 14.5999 8.90603 13.7059 8.88916C12.8963 8.88073 12.0908 8.88494 11.2854 8.88916C10.48 8.89337 9.67457 8.89759 8.86493 8.88916C8.49436 10.0789 8.11878 11.2711 7.74302 12.4639L7.74258 12.4653C7.14356 14.3668 6.54409 16.2697 5.96373 18.1663H8.34204C8.49941 17.6717 8.65679 17.1621 8.81417 16.6525L8.81433 16.6519C8.89304 16.3971 8.97176 16.1422 9.05047 15.8892C9.27612 15.8892 9.50475 15.8936 9.73503 15.8981L9.73607 15.8982L9.73631 15.8982ZM15.3504 13.5532L15.3502 13.5539C14.8653 15.097 14.3805 16.6401 13.9083 18.1831H20.8746C21.3806 16.6482 21.8697 15.0795 22.342 13.5277H19.9637C19.7276 14.3036 19.4914 15.0795 19.2384 15.8723H17.0119C17.2894 14.9817 17.5694 14.096 17.849 13.2115L17.8493 13.2107C18.3004 11.7837 18.7505 10.3597 19.1878 8.92289C18.3782 8.90603 17.5854 8.90603 16.7926 8.92289C16.3205 10.4659 15.8356 12.0089 15.3508 13.552L15.3506 13.5525L15.3504 13.5532ZM29.8986 14.7422C30.2613 13.5952 30.624 12.4482 30.9782 11.3012C31.3999 10.3398 30.8432 9.05783 29.7469 8.95663C29.1133 8.90594 28.4607 8.91237 27.8176 8.9187C27.6047 8.9208 27.3928 8.92289 27.183 8.92289C25.7155 8.88916 24.3661 10.0193 23.9782 11.4024C23.2529 13.6627 22.5444 15.9229 21.836 18.1831H24.2143C24.3717 17.6885 24.5291 17.1788 24.6865 16.6692L24.6867 16.6687C24.7654 16.4138 24.8441 16.159 24.9228 15.906H27.1493C26.9919 16.4008 26.8344 16.9105 26.677 17.4202L26.676 17.4236C26.5976 17.6774 26.5192 17.9312 26.4408 18.1831H28.8191C29.1734 17.0362 29.536 15.8892 29.8986 14.7422ZM35.33 15.906C36.6963 15.7711 37.9613 14.8434 38.3999 13.5108C38.889 11.9759 39.3613 10.441 39.8336 8.88916H37.4553C37.118 9.91239 36.7956 10.9506 36.4733 11.9888L36.4732 11.989C36.312 12.5082 36.1509 13.0273 35.9878 13.5446H33.7613C34.0762 12.4988 34.406 11.4681 34.7358 10.4373C34.9008 9.92191 35.0657 9.40647 35.2288 8.88916C34.4191 8.88916 33.6264 8.88916 32.8336 8.90603C32.5749 9.74906 32.3109 10.5866 32.0475 11.4219L32.0473 11.4225C31.847 12.0577 31.6472 12.6915 31.4505 13.3253C31.2481 13.9494 31.1806 14.6578 31.5685 15.2145C31.8361 15.6306 32.3262 15.7586 32.7736 15.8755C32.8339 15.8913 32.8935 15.9068 32.9517 15.9229C32.8336 16.3024 32.7155 16.6735 32.5975 17.0446C32.4794 17.4157 32.3613 17.7867 32.2432 18.1663H34.6216C34.7396 17.7867 34.8577 17.4114 34.9758 17.0361C35.0938 16.6608 35.2119 16.2855 35.33 15.906ZM44.2191 9.15904H41.1155C40.8119 10.053 40.5083 10.9639 40.2047 11.8747H43.2914C43.4598 11.3397 43.6457 10.8106 43.832 10.2804L43.8321 10.2799L43.8323 10.2795C43.963 9.90733 44.094 9.53462 44.2191 9.15904ZM49.1966 16.0842C49.3788 15.4684 49.5605 14.8541 49.7348 14.2361C49.9035 13.6627 50.0216 13.0048 49.7011 12.4651C49.4649 11.9759 48.942 11.706 48.4023 11.6723C47.5927 11.6217 46.7831 11.6386 45.9735 11.6554H45.9734C44.5059 11.6386 43.1396 12.7349 42.7685 14.1518L42.7673 14.1561C42.3798 15.5041 41.9922 16.852 41.6047 18.1831H43.983C44.1814 17.5246 44.3722 16.8623 44.5627 16.2016L44.5628 16.2013C44.7772 15.4574 44.991 14.7155 45.2143 13.9831H47.4408C47.283 14.5289 47.1201 15.0721 46.957 15.6158L46.9568 15.6163L46.9568 15.6165C46.7016 16.4671 46.4462 17.3189 46.2095 18.1831H48.5878C48.7846 17.4765 48.9909 16.7794 49.1966 16.0842Z" fill="#00AB55"/>
<path fill-rule="evenodd" clip-rule="evenodd" d="M97.3517 3.76145V3.00241H97.5541C97.5878 3.00241 97.6553 3.01928 97.689 3.03614C97.7228 3.05301 97.7734 3.10361 97.7902 3.15422C97.8071 3.18795 97.824 3.21746 97.8408 3.24698C97.8577 3.2765 97.8746 3.30602 97.8914 3.33976C97.9589 3.4747 98.0264 3.60964 98.0938 3.76145H98.6336C98.5324 3.57591 98.4481 3.40723 98.3637 3.22169C98.33 3.12048 98.2625 3.01928 98.1782 2.95181C98.1107 2.88434 98.0601 2.86747 97.9926 2.8506C98.0095 2.84216 98.0264 2.83795 98.0433 2.83373C98.0601 2.82952 98.077 2.8253 98.0938 2.81687C98.1951 2.78313 98.2794 2.6988 98.3131 2.61446C98.318 2.60215 98.323 2.5902 98.3278 2.57851C98.356 2.51008 98.3806 2.45034 98.3806 2.37831C98.3806 2.29398 98.3806 2.22651 98.3469 2.14217C98.33 2.0747 98.2794 2.0241 98.2457 1.99036C98.1613 1.90602 98.0432 1.87229 97.9252 1.83855C97.824 1.82169 97.7228 1.82169 97.6047 1.82169H96.8288V3.81205C97.0143 3.76145 97.1999 3.76145 97.3517 3.76145ZM97.3517 2.1253H97.5541C97.6384 2.1253 97.7059 2.1253 97.7734 2.15904C97.8071 2.1759 97.8577 2.22651 97.8746 2.26024C97.8914 2.32771 97.8914 2.37831 97.8914 2.41205C97.8914 2.47952 97.8746 2.53012 97.8071 2.54699C97.7973 2.55187 97.7879 2.55675 97.7787 2.56153L97.7785 2.56163C97.7242 2.58984 97.6767 2.61446 97.6047 2.61446H97.3685C97.3517 2.46265 97.3517 2.31085 97.3517 2.1253Z" fill="#00AB55"/>
<path fill-rule="evenodd" clip-rule="evenodd" d="M97.183 4.63855C96.9469 4.57108 96.7276 4.45302 96.5252 4.31807C96.3228 4.1494 96.1541 3.96386 96.0023 3.77831C95.8336 3.4747 95.7493 3.08674 95.7661 2.73253C95.783 2.41205 95.8842 2.09157 96.036 1.83855C96.2047 1.56868 96.4408 1.3494 96.6938 1.19759C96.9469 1.06265 97.2167 0.961448 97.5203 0.944579C97.7149 0.912147 97.894 0.942075 98.0873 0.974412L98.1107 0.978314C98.4143 1.04579 98.6842 1.19759 98.9204 1.4C99.1059 1.55181 99.2577 1.75422 99.3589 1.97349C99.477 2.20964 99.5613 2.49639 99.5613 2.7494C99.5782 3.10361 99.4938 3.45783 99.3083 3.77831C99.1902 3.99759 99.0216 4.2 98.8023 4.35181C98.5493 4.55422 98.2288 4.67229 97.9083 4.70602C97.6553 4.72289 97.4191 4.70602 97.183 4.63855ZM96.4914 1.88916C96.3228 2.09157 96.2216 2.36145 96.1878 2.63133C96.1541 2.81687 96.171 3.03614 96.2384 3.25542C96.3228 3.50844 96.4577 3.74458 96.6601 3.93012C96.8794 4.1494 97.1661 4.3012 97.4866 4.33494C97.7734 4.35181 98.0432 4.31807 98.2794 4.21687C98.4481 4.13253 98.6167 4.01446 98.7517 3.87952C98.9035 3.72771 99.0047 3.55904 99.089 3.35663C99.1902 3.12048 99.2071 2.83374 99.1734 2.58073C99.1396 2.29398 99.0216 2.04096 98.8191 1.82169C98.6336 1.61928 98.4143 1.46747 98.1613 1.38313C97.9926 1.29879 97.7734 1.28193 97.571 1.29879C97.4191 1.31566 97.2842 1.33253 97.1493 1.4C96.8794 1.48434 96.677 1.66988 96.4914 1.88916Z" fill="#00AB55"/>
</svg>

<svg xmlns="http://www.w3.org/2000/svg" width="102" height="28" fill="none"><path fill="#00AB55" d="M78.47 17.907c1.013-3.234 2.031-6.489 3.026-9.743 1.16-.011 2.328-.008 3.488-.004.577.002 1.153.004 1.724.004a1309.14 1309.14 0 0 1-3.593 11.554h-5.212l.567-1.81ZM12.02 13.561H9.792c.219-.775.455-1.551.691-2.327h2.26c-.118.388-.24.776-.362 1.164-.123.388-.245.776-.363 1.163ZM27.908 13.561h-2.226c.22-.775.472-1.551.725-2.327h2.227c-.119.388-.24.776-.363 1.164-.122.388-.245.776-.363 1.163Z"/><path fill="#00AB55" fill-rule="evenodd" d="M93.54 2.159c1.028 1.13 1.551 2.648 1.636 4.15.404.018.816.006 1.23-.006 1.102-.03 2.212-.062 3.206.478 1.096.556 1.805 1.686 1.99 2.9v1.131c-.298 1.282-.654 2.546-1.011 3.81v.001c-.249.881-.497 1.763-.726 2.65a6.007 6.007 0 0 1-3.88 4.25c-1.159.367-2.373.336-3.577.305-.564-.014-1.127-.028-1.68-.002l-.005.017c-1.754 3.357-5.23 5.853-9.024 6.157H56.65c-1.586-.169-3.172-.843-4.251-2.007-1.063-1.113-1.636-2.598-1.72-4.133H4.53c-1.113 0-2.26-.287-3.07-1.08-.59-.573-.944-1.4-1.063-2.226v-1.113c.32-1.508.71-2.985 1.1-4.468.187-.706.374-1.414.553-2.127.507-2.497 2.851-4.538 5.415-4.538h47.634v-.016C56.718 2.935 60.075.422 63.785 0h25.352c1.653.202 3.272.894 4.403 2.159Zm-34.712 23.33c1.53.003 3.071.006 4.603-.02 3.12-.185 5.803-2.63 6.78-5.515.534-1.655 1.05-3.31 1.566-4.963l.002-.005v-.001c.398-1.275.795-2.549 1.2-3.819h-8.283c-.287.945-.582 1.885-.877 2.826-.295.94-.59 1.88-.877 2.825h2.867c-.32.978-.624 1.973-.927 2.968h-5.668l.704-2.238c.98-3.121 1.963-6.25 2.957-9.366 2.385.011 4.785.007 7.18.003l3.581-.003.22-.69c.533-1.673 1.064-3.336 1.568-5.011-1.704-.009-3.403-.009-5.103-.009-1.7 0-3.398 0-5.102-.008-3.778-.186-7.37 2.648-8.332 6.257-.635 2.045-1.275 4.079-1.914 6.11-.516 1.64-1.032 3.28-1.544 4.922-.422 1.299-.405 2.817.37 3.98.76 1.181 2.16 1.772 3.51 1.755.503 0 1.008 0 1.515.002h.004Zm21.808.031c3.829.119 7.439-2.698 8.45-6.375.539-1.747 1.084-3.49 1.628-5.229v-.003h.001c.633-2.023 1.264-4.04 1.88-6.053.506-1.67.152-3.71-1.299-4.807-1.164-.961-2.732-.928-4.132-.894-.62.017-1.241.001-1.862-.015-1.206-.03-2.412-.062-3.603.15-2.986.725-5.584 3.087-6.427 6.055-.59 1.88-1.18 3.762-1.769 5.645l-.002.006-.002.007-1.769 5.644c-.422 1.349-.354 2.884.455 4.082.726 1.096 2.025 1.686 3.323 1.754 1.085.043 2.176.038 3.265.033a129.91 129.91 0 0 1 1.863 0Zm-70.9-9.622c.544.01 1.097.022 1.642-.026 1.383-.05 2.648-1.08 3.036-2.429.09-.328.198-.652.307-.976.199-.594.399-1.191.486-1.824.118-.894-.607-1.737-1.501-1.754-.81-.008-1.615-.004-2.42 0-.806.004-1.611.009-2.421 0-.37 1.19-.746 2.382-1.122 3.575v.001c-.6 1.902-1.199 3.805-1.78 5.701h2.379c.157-.494.315-1.004.472-1.514l.236-.763c.226 0 .455.005.685.01h.001Zm5.614-2.345c-.485 1.544-.97 3.087-1.442 4.63h6.967c.506-1.535.995-3.104 1.467-4.655h-2.378a180.05 180.05 0 0 1-.726 2.344h-2.226c.277-.89.557-1.776.837-2.66v-.001a417.84 417.84 0 0 0 1.339-4.288 56.717 56.717 0 0 0-2.395 0c-.473 1.543-.957 3.086-1.442 4.629v.001Zm14.549 1.19c.362-1.148.725-2.295 1.08-3.442.42-.961-.136-2.243-1.232-2.344-.634-.051-1.286-.045-1.93-.038-.212.002-.424.004-.634.004-1.468-.034-2.817 1.096-3.205 2.48-.725 2.26-1.434 4.52-2.142 6.78h2.378c.158-.494.315-1.004.473-1.514l.236-.763h2.226c-.157.495-.315 1.004-.472 1.514l-.001.004-.235.76h2.378c.354-1.148.717-2.295 1.08-3.442Zm5.431 1.163c1.366-.135 2.631-1.063 3.07-2.395.489-1.535.961-3.07 1.434-4.622h-2.379c-.337 1.023-.66 2.062-.982 3.1-.161.52-.322 1.038-.485 1.556H33.76c.315-1.046.645-2.077.975-3.108.165-.515.33-1.03.493-1.548-.81 0-1.603 0-2.395.017-.26.843-.523 1.68-.787 2.516-.2.636-.4 1.27-.596 1.903-.203.624-.27 1.333.117 1.89.268.416.758.544 1.206.66l.178.048c-.118.38-.236.75-.355 1.122-.118.37-.236.742-.354 1.121h2.379l.354-1.13.354-1.13Zm8.89-6.747h-3.105c-.303.894-.607 1.805-.91 2.716h3.086c.169-.535.355-1.064.541-1.595.131-.373.262-.745.387-1.121Zm4.977 6.925c.182-.616.363-1.23.538-1.848.169-.573.287-1.231-.034-1.77-.236-.49-.759-.76-1.299-.794-.81-.05-1.619-.033-2.428-.017-1.468-.016-2.834 1.08-3.205 2.497l-.002.004c-.387 1.348-.775 2.696-1.162 4.027h2.378c.198-.658.39-1.32.58-1.981.214-.745.428-1.487.651-2.219h2.227c-.158.546-.32 1.09-.484 1.633-.255.851-.51 1.703-.748 2.567h2.379c.197-.706.403-1.404.609-2.099ZM97.352 3.761v-.759h.202c.034 0 .101.017.135.034a.237.237 0 0 1 .101.118c.017.034.034.063.05.093.018.03.035.059.051.093.068.135.135.27.203.421h.54a8.081 8.081 0 0 1-.27-.54.6.6 0 0 0-.186-.27.341.341 0 0 0-.185-.1c.017-.009.033-.013.05-.017.017-.004.034-.009.05-.017a.373.373 0 0 0 .22-.203l.015-.035a.512.512 0 0 0 .053-.2c0-.085 0-.152-.034-.237-.017-.067-.068-.118-.101-.152-.085-.084-.203-.118-.32-.151-.102-.017-.203-.017-.321-.017h-.776v1.99c.185-.05.37-.05.523-.05Zm0-1.636h.202c.084 0 .152 0 .22.034a.291.291 0 0 1 .1.101.583.583 0 0 1 .017.152c0 .068-.016.118-.084.135l-.028.015a.348.348 0 0 1-.174.052h-.237c-.016-.151-.016-.303-.016-.489Z" clip-rule="evenodd"/><path fill="#00AB55" fill-rule="evenodd" d="M97.183 4.639a2.38 2.38 0 0 1-.658-.32 3.922 3.922 0 0 1-.523-.54 2.03 2.03 0 0 1-.236-1.046c.017-.321.118-.641.27-.894.169-.27.405-.49.658-.641.253-.135.523-.237.826-.253.195-.033.374-.003.567.03l.024.003c.303.068.573.22.81.422.185.152.337.354.438.573.118.237.202.523.202.776.017.355-.067.709-.253 1.03a1.64 1.64 0 0 1-.506.573 1.73 1.73 0 0 1-.894.354c-.253.017-.489 0-.725-.067Zm-.692-2.75c-.168.203-.27.472-.303.742-.034.186-.017.405.05.624.085.253.22.49.422.675.22.22.506.371.827.405.286.017.556-.017.792-.118a1.86 1.86 0 0 0 .473-.337 1.52 1.52 0 0 0 .422-1.299 1.323 1.323 0 0 0-.355-.76 1.56 1.56 0 0 0-.658-.438c-.168-.084-.388-.101-.59-.084a1.189 1.189 0 0 0-.422.101c-.27.084-.472.27-.658.49Z" clip-rule="evenodd"/></svg>
